static/images/kotlin_new_stack_logo.svg

<svg fill="none" height="89" viewBox="0 0 134 89" width="134" xmlns="http://www.w3.org/2000/svg" xmlns:xlink="http://www.w3.org/1999/xlink"><linearGradient id="a" gradientUnits="userSpaceOnUse" x1="39.2924" x2="20.3676" y1="35.2714" y2="54.5584"><stop offset=".00343514" stop-color="#e44857"/><stop offset=".4689" stop-color="#c711e1"/><stop offset="1" stop-color="#7f52ff"/></linearGradient><clipPath id="b"><path d="m20 34.5h94v20h-94z"/></clipPath><path d="m0 0h134v89h-134z" fill="#fff"/><g clip-path="url(#b)"><path d="m39.2941 54.1977h-19.2941v-18.9243h19.2941l-9.647 9.4584z" fill="url(#a)"/><g fill="#000"><path d="m62.6423 35.2129h-3.8719l-8.3461 8.7841v-8.7235h-3.0845v18.9242h3.0845v-9.1401l8.4079 9.1401h3.9298l-8.8904-9.7878z"/><path d="m73.1043 40.9703c-1.0887-.5947-2.3587-.9508-3.6906-.9508-1.3897 0-2.6597.2955-3.7484.9508-1.0886.6553-1.9958 1.4848-2.6019 2.553-.606 1.1288-.9072 2.375-.9072 3.7387 0 1.3636.3012 2.6704.9072 3.7386.6061 1.0682 1.4515 1.9583 2.6019 2.553 1.0887.5947 2.3587.9508 3.7484.9508 1.3898 0 2.6598-.2955 3.7485-.9508 1.0886-.5947 1.934-1.4848 2.5401-2.553.6061-1.1288.9072-2.375.9072-3.7386 0-1.3637-.3629-2.6099-.969-3.7387-.5983-1.072-1.4476-1.9621-2.5362-2.553zm-.2394 8.7159c-.3629.7121-.8454 1.2462-1.4515 1.6023-.6061.4166-1.3318.5947-2.1155.5947-.7836 0-1.5132-.1781-2.1772-.5947-.6061-.4167-1.0886-.9508-1.4515-1.6023-.3629-.7121-.4826-1.4848-.4826-2.375s.1815-1.7197.5444-2.375c.3628-.7121.8454-1.2462 1.4514-1.6023.6061-.4166 1.3319-.5947 2.1773-.5947.7875 0 1.5133.1781 2.1155.5947.6061.4167 1.0886.9508 1.4515 1.6023.3629.7121.4825 1.4848.4825 2.375s-.1814 1.6629-.5443 2.375z"/><path d="m82.844 36.875h-2.9647v2.375c0 .3561-.0618.6515-.3011.8295-.1815.1781-.4826.2955-.8455.2955h-1.4515v2.4924h2.5402v7.4773c0 .7727.1814 1.4848.4825 2.0758.3011.5947.7875 1.0681 1.3897 1.3636.6061.3561 1.2701.4735 2.1155.4735h2.297v-2.6099h-1.6947c-.4247 0-.7876-.1174-1.0887-.4735-.2432-.2954-.4246-.7121-.4246-1.1856v-7.1212h3.2659v-2.4924h-3.2659v-3.5z"/><path d="m91.4914 34.5h-3.0226v19.697h3.0226z"/><path d="m98.0219 34.5605h-3.0844v3.0872h3.0844z"/><path d="m97.9602 40.375h-3.0227v13.8788h3.0227z"/><path d="m113.387 42.6294c-.425-.8296-1.027-1.4849-1.814-1.8977-.788-.4735-1.695-.7122-2.722-.7122-1.089 0-2.058.2955-2.903.7728-.664.4166-1.208 1.0075-1.633 1.6628v-2.1363h-2.903v13.8788h3.023v-7.7766c0-.7727.119-1.4242.424-2.0189.302-.5947.726-1.0076 1.209-1.3636.544-.2955 1.15-.4735 1.876-.4735.664 0 1.15.1174 1.633.4167.482.2992.787.6515 1.027 1.1287.243.4735.363 1.0682.363 1.7197v8.3069h3.022v-8.6629c.066-1.0644-.174-2.0114-.602-2.8447z"/></g></g></svg>

<svg width="134" height="89" viewBox="0 0 134 89" fill="none" xmlns="http://www.w3.org/2000/svg">
<rect width="134" height="89" fill="white"/>
<g clip-path="url(#clip0_6300_652)">
<path d="M39.2941 54.1977H20V35.2734H39.2941L29.6471 44.7318L39.2941 54.1977Z" fill="url(#paint0_linear_6300_652)"/>
<path d="M62.6423 35.2129H58.7704L50.4243 43.997V35.2735H47.3398V54.1977H50.4243V45.0576L58.8322 54.1977H62.762L53.8716 44.4099L62.6423 35.2129Z" fill="black"/>
<path d="M73.1043 40.9703C72.0156 40.3756 70.7456 40.0195 69.4137 40.0195C68.024 40.0195 66.754 40.315 65.6653 40.9703C64.5767 41.6256 63.6695 42.4551 63.0634 43.5233C62.4574 44.6521 62.1562 45.8983 62.1562 47.262C62.1562 48.6256 62.4574 49.9324 63.0634 51.0006C63.6695 52.0688 64.5149 52.9589 65.6653 53.5536C66.754 54.1483 68.024 54.5044 69.4137 54.5044C70.8035 54.5044 72.0735 54.2089 73.1622 53.5536C74.2508 52.9589 75.0962 52.0688 75.7023 51.0006C76.3084 49.8718 76.6095 48.6256 76.6095 47.262C76.6095 45.8983 76.2466 44.6521 75.6405 43.5233C75.0422 42.4513 74.1929 41.5612 73.1043 40.9703ZM72.8649 49.6862C72.502 50.3983 72.0195 50.9324 71.4134 51.2885C70.8073 51.7051 70.0816 51.8832 69.2979 51.8832C68.5143 51.8832 67.7847 51.7051 67.1207 51.2885C66.5146 50.8718 66.0321 50.3377 65.6692 49.6862C65.3063 48.9741 65.1866 48.2014 65.1866 47.3112C65.1866 46.421 65.3681 45.5915 65.731 44.9362C66.0938 44.2241 66.5764 43.69 67.1824 43.3339C67.7885 42.9173 68.5143 42.7392 69.3597 42.7392C70.1472 42.7392 70.873 42.9173 71.4752 43.3339C72.0813 43.7506 72.5638 44.2847 72.9267 44.9362C73.2896 45.6483 73.4092 46.421 73.4092 47.3112C73.4092 48.2014 73.2278 48.9741 72.8649 49.6862Z" fill="black"/>
<path d="M82.844 36.875H79.8793V39.25C79.8793 39.6061 79.8175 39.9015 79.5782 40.0795C79.3967 40.2576 79.0956 40.375 78.7327 40.375H77.2812V42.8674H79.8214V50.3447C79.8214 51.1174 80.0028 51.8295 80.3039 52.4205C80.605 53.0152 81.0914 53.4886 81.6936 53.7841C82.2997 54.1402 82.9637 54.2576 83.8091 54.2576H86.1061V51.6477H84.4114C83.9867 51.6477 83.6238 51.5303 83.3227 51.1742C83.0795 50.8788 82.8981 50.4621 82.8981 49.9886V42.8674H86.164V40.375H82.8981V36.875H82.844Z" fill="black"/>
<path d="M91.4914 34.5H88.4688V54.197H91.4914V34.5Z" fill="black"/>
<path d="M98.0219 34.5605H94.9375V37.6477H98.0219V34.5605Z" fill="black"/>
<path d="M97.9602 40.375H94.9375V54.2538H97.9602V40.375Z" fill="black"/>
<path d="M113.387 42.6294C112.962 41.7998 112.36 41.1445 111.573 40.7317C110.785 40.2582 109.878 40.0195 108.851 40.0195C107.762 40.0195 106.793 40.315 105.948 40.7923C105.284 41.2089 104.74 41.7998 104.315 42.4551V40.3188H101.412V54.1976H104.435V46.421C104.435 45.6483 104.554 44.9968 104.859 44.4021C105.161 43.8074 105.585 43.3945 106.068 43.0385C106.612 42.743 107.218 42.565 107.944 42.565C108.608 42.565 109.094 42.6824 109.577 42.9817C110.059 43.2809 110.364 43.6332 110.604 44.1104C110.847 44.5839 110.967 45.1786 110.967 45.8301V54.137H113.989V45.4741C114.055 44.4097 113.815 43.4627 113.387 42.6294Z" fill="black"/>
</g>
<defs>
<linearGradient id="paint0_linear_6300_652" x1="39.2924" y1="35.2714" x2="20.3676" y2="54.5584" gradientUnits="userSpaceOnUse">
<stop offset="0.00343514" stop-color="#E44857"/>
<stop offset="0.4689" stop-color="#C711E1"/>
<stop offset="1" stop-color="#7F52FF"/>
</linearGradient>
<clipPath id="clip0_6300_652">
<rect width="94" height="20" fill="white" transform="translate(20 34.5)"/>
</clipPath>
</defs>
</svg>
